neru-light-classic/22x22/places/folder-linux.svg

<?xml version="1.0" encoding="UTF-8" standalone="no"?>
<svg
   xmlns:dc="http://purl.org/dc/elements/1.1/"
   xmlns:cc="http://creativecommons.org/ns#"
   xmlns:rdf="http://www.w3.org/1999/02/22-rdf-syntax-ns#"
   xmlns:svg="http://www.w3.org/2000/svg"
   xmlns="http://www.w3.org/2000/svg"
   xmlns:sodipodi="http://sodipodi.sourceforge.net/DTD/sodipodi-0.dtd"
   xmlns:inkscape="http://www.inkscape.org/namespaces/inkscape"
   width="22"
   height="22"
   viewBox="0 0 16 16"
   version="1.1"
   id="svg7"
   sodipodi:docname="folder-linux.svg"
   inkscape:version="0.92.4 5da689c313, 2019-01-14">
  <metadata
     id="metadata11">
    <rdf:RDF>
      <cc:Work
         rdf:about="">
        <dc:format>image/svg+xml</dc:format>
        <dc:type
           rdf:resource="http://purl.org/dc/dcmitype/StillImage" />
      </cc:Work>
    </rdf:RDF>
  </metadata>
  <sodipodi:namedview
     pagecolor="#ffffff"
     bordercolor="#666666"
     borderopacity="1"
     objecttolerance="10"
     gridtolerance="10"
     guidetolerance="10"
     inkscape:pageopacity="0"
     inkscape:pageshadow="2"
     inkscape:window-width="769"
     inkscape:window-height="515"
     id="namedview9"
     showgrid="false"
     inkscape:zoom="10.727273"
     inkscape:cx="11"
     inkscape:cy="11"
     inkscape:window-x="0"
     inkscape:window-y="28"
     inkscape:window-maximized="0"
     inkscape:current-layer="svg7" />
  <defs
     id="defs3">
    <style
       id="current-color-scheme"
       type="text/css">
   .ColorScheme-Text { color:#5c616c; } .ColorScheme-Highlight { color:#5294e2; }
  </style>
  </defs>
  <path
     style="color:#5c616c;fill:#1e333d;stroke-width:0.83116883;fill-opacity:1"
     class="ColorScheme-Text"
     d="M 8.0990258,2.1905157 C 7.7992384,2.1741642 7.4783001,2.1793364 7.1347401,2.2067494 1.707457,2.6436117 3.147431,8.3774092 3.0665582,10.297658 2.9949115,11.31343 2.6581775,12.555136 2.181818,13.818762 h 1.4659091 c 0.1507491,-0.535481 0.2622477,-1.064869 0.310065,-1.569804 0.088428,0.06167 0.1831204,0.119796 0.2840908,0.176947 0.1642972,0.0968 0.3050431,0.225768 0.4545455,0.362013 0.3493569,0.318388 0.7453548,0.680451 1.5194805,0.72565 0.051948,0.0033 0.1046857,0.0032 0.1558441,0.0032 0.7829112,0 1.3180806,-0.343215 1.7483766,-0.618506 0.2061383,-0.132006 0.3843762,-0.245593 0.5519482,-0.300325 0.4762514,-0.149087 0.8918987,-0.390059 1.2029217,-0.696428 0.048623,-0.04779 0.094116,-0.09599 0.1363645,-0.146104 0.173248,0.634955 0.410428,1.348628 0.673701,2.061688 h 3.133117 c -0.752,-1.161642 -1.527156,-2.299322 -1.511364,-3.751624 h -0.0016 C 12.334883,7.3735416 12.595836,2.4357882 8.0990258,2.1905157 Z m 0.2775974,4.2516234 c 0.8425558,-0.022857 1.5444497,0.8379013 1.5665587,1.9220779 0.00997,0.4903151 -0.1217795,0.9421191 -0.3457795,1.2922081 -0.049953,-0.0251 -0.1016353,-0.04899 -0.1558441,-0.07143 -0.2512042,-0.107453 -0.45304,-0.18043 -0.62013,-0.238636 0.092252,-0.180588 0.1505912,-0.404804 0.1558442,-0.6493509 v -0.00162 C 8.9900725,8.1002024 8.6898206,7.6167547 8.306818,7.6158404 7.9237489,7.6150092 7.6020772,8.0970304 7.5892856,8.692139 c -4.323e-4,0.019449 -2.494e-4,0.039159 0,0.058442 C 7.3533583,8.6420798 7.1215972,8.5637562 6.8944804,8.515191 6.8936492,8.4928325 6.8912336,8.4695338 6.8912336,8.4470092 6.8692076,7.3627494 7.533951,6.4649962 8.3766232,6.4421391 Z M 4.5925323,6.7424637 c 0.606961,-0.035325 1.1424857,0.6960572 1.1964286,1.6331169 0.00249,0.050535 0.00487,0.101453 0.00487,0.150974 C 5.6015151,8.5749287 5.4281889,8.6445261 5.2727271,8.7262299 5.272137,8.7195806 5.2719349,8.7121078 5.2711037,8.705126 5.2191557,8.1732362 4.9349941,7.7709936 4.6363635,7.8073988 4.3377245,7.843804 4.1380201,8.3047131 4.1899349,8.8366191 c 0,0 0,0.0016 0,0.0016 0.022608,0.231929 0.088927,0.438821 0.1818181,0.595779 -0.023106,0.0182 -0.088715,0.06512 -0.163961,0.12013 -0.056436,0.04123 -0.124908,0.09156 -0.2077922,0.152598 C 3.7740715,9.4102051 3.6185619,8.9845921 3.5909089,8.5038273 3.5369661,7.5667676 3.9855712,6.7777053 4.5925323,6.7424637 Z M 6.358766,9.1174641 c 0.4364052,0 0.9189481,0.169278 1.4334416,0.5 0.242319,0.157681 0.4537746,0.229244 0.7207792,0.321428 0.1835886,0.06342 0.391772,0.1355309 0.6704546,0.2548699 l 0.00325,0.0016 c 0.2599729,0.106822 0.5675932,0.302615 0.5535714,0.625001 -0.02161,0.495293 -0.6692577,0.960714 -1.2678572,1.147727 l -0.00325,0.0016 C 8.220312,12.0504 7.999565,12.191102 7.7646102,12.341444 c -0.3946805,0.252501 -0.803359,0.51461 -1.3928572,0.51461 -0.038649,0 -0.077918,-7.53e-4 -0.1168831,-0.0032 C 5.7149177,12.821269 5.4609843,12.590648 5.1412336,12.299281 4.9725728,12.145532 4.7995229,11.986358 4.5746751,11.854476 l -0.00487,-0.0016 c -0.4852946,-0.273934 -0.7875435,-0.615633 -0.8068182,-0.91236 -0.00956,-0.147499 0.055659,-0.27391 0.1948052,-0.378247 0.3026867,-0.226934 0.5054514,-0.37589 0.6396103,-0.474026 0.1489787,-0.1089579 0.1939512,-0.1420169 0.2272727,-0.1737009 0.023772,-0.02261 0.050244,-0.04775 0.077922,-0.07468 0.2777933,-0.270155 0.7426852,-0.722402 1.4561688,-0.722402 z M 4.5081167,10.48597 c -0.08306,0.016 -0.159868,0.06238 -0.2110389,0.137987 -0.1023169,0.151156 -0.063527,0.357099 0.087662,0.459416 0.3942898,0.266888 1.0914519,0.465286 1.8198052,0.517857 0.1234784,0.0089 0.259841,0.01461 0.4058441,0.01461 0.6338826,0 1.4389844,-0.06044 2.3003247,-0.461039 0.1654774,-0.07705 0.2376888,-0.272809 0.1607143,-0.438311 -0.076966,-0.16557 -0.2744158,-0.237581 -0.4399348,-0.160715 -0.9311584,0.433197 -1.7965948,0.428363 -2.3782467,0.386364 -0.6937767,-0.05004 -1.2514754,-0.239868 -1.4967533,-0.405844 -0.07557,-0.05116 -0.1653168,-0.06633 -0.2483766,-0.05033 z"
     id="path5"
     inkscape:connector-curvature="0" />
</svg>

<svg xmlns="http://www.w3.org/2000/svg" width="22" height="22" viewBox="0 0 16 16" version="1.1" id="svg7"><defs id="defs3"><style id="current-color-scheme" type="text/css"></style></defs><path d="M8.099 2.19c-.3-.016-.62-.01-.964.017-5.428.437-3.988 6.17-4.068 8.09-.072 1.016-.409 2.258-.885 3.522h1.466c.15-.536.262-1.065.31-1.57.088.062.183.12.284.177.164.097.305.226.454.362.35.318.746.68 1.52.726.052.003.105.003.156.003.783 0 1.318-.343 1.748-.619.206-.132.385-.245.552-.3a2.98 2.98 0 0 0 1.203-.696c.049-.048.094-.096.136-.147.174.635.41 1.349.674 2.062h3.133c-.752-1.162-1.527-2.3-1.511-3.752h-.002c.03-2.691.29-7.63-4.206-7.874zm.278 4.252c.842-.023 1.544.838 1.566 1.922.01.49-.122.942-.346 1.292a2.338 2.338 0 0 0-.155-.071 9.236 9.236 0 0 0-.62-.239c.092-.18.15-.404.155-.649v-.002c.013-.595-.287-1.078-.67-1.08-.383 0-.705.482-.718 1.077v.059a3.333 3.333 0 0 0-.695-.236c0-.022-.003-.045-.003-.068-.022-1.084.643-1.982 1.486-2.005zm-3.784.3c.606-.035 1.142.697 1.196 1.634.002.05.005.101.005.15a2.349 2.349 0 0 0-.521.2l-.002-.02c-.052-.533-.336-.935-.635-.899-.298.037-.498.498-.446 1.03v.001c.023.232.089.439.182.596l-.164.12A70.73 70.73 0 0 0 4 9.707c-.226-.297-.381-.722-.41-1.203-.053-.937.396-1.726 1.003-1.762zm1.766 2.375c.436 0 .919.17 1.433.5.243.158.454.23.721.322.184.063.392.135.67.255l.004.001c.26.107.567.303.553.625-.021.496-.669.961-1.268 1.148l-.003.002c-.249.08-.47.221-.704.371-.395.253-.804.515-1.393.515-.039 0-.078 0-.117-.003-.54-.032-.794-.262-1.114-.554-.168-.153-.341-.313-.566-.445l-.005-.001c-.485-.274-.788-.616-.807-.912-.01-.148.056-.274.195-.379.302-.227.505-.376.64-.474a2.68 2.68 0 0 0 .227-.173l.078-.075c.277-.27.742-.723 1.456-.723zm-1.85 1.369a.33.33 0 0 0-.123.597c.393.267 1.09.466 1.819.518.123.01.26.015.405.015.634 0 1.44-.06 2.3-.461a.33.33 0 1 0-.279-.6c-.93.434-1.796.43-2.378.387-.694-.05-1.251-.24-1.497-.406a.33.33 0 0 0-.248-.05z" id="path5" color="#5c616c" fill="#1e333d" stroke-width=".831" fill-opacity="1"/></svg>
